Docs/Class diagram/Node/OctTreeNode.svg

<?xml version="1.0" encoding="UTF-8" standalone="no"?>
<?plantuml 1.2026.1?><svg
   contentStyleType="text/css"
   data-diagram-type="CLASS"
   height="353.5867"
   preserveAspectRatio="none"
   version="1.1"
   viewBox="0 0 390.4566 353.5867"
   width="390.4566"
   zoomAndPan="magnify"
   id="svg18"
   sodipodi:docname="OctTreeNode.svg"
   inkscape:export-filename="OctTreeNode.png"
   inkscape:export-xdpi="96"
   inkscape:export-ydpi="96"
   inkscape:version="1.4 (e7c3feb100, 2024-10-09)"
   xmlns:inkscape="http://www.inkscape.org/namespaces/inkscape"
   xmlns:sodipodi="http://sodipodi.sourceforge.net/DTD/sodipodi-0.dtd"
   xmlns="http://www.w3.org/2000/svg"
   xmlns:svg="http://www.w3.org/2000/svg">
  <sodipodi:namedview
     id="namedview18"
     pagecolor="#505050"
     bordercolor="#ffffff"
     borderopacity="1"
     inkscape:showpageshadow="0"
     inkscape:pageopacity="0"
     inkscape:pagecheckerboard="1"
     inkscape:deskcolor="#505050"
     inkscape:zoom="1.8609626"
     inkscape:cx="198.0158"
     inkscape:cy="180.01437"
     inkscape:window-width="1745"
     inkscape:window-height="905"
     inkscape:window-x="0"
     inkscape:window-y="0"
     inkscape:window-maximized="1"
     inkscape:current-layer="svg18" />
  <defs
     id="defs1" />
  <g
     id="g18"
     transform="translate(-6.75,-6.75)">
    <!--class OctTreeNode-->
    <g
       class="entity"
       data-qualified-name="OctTreeNode"
       data-source-line="1"
       id="ent0002">
      <rect
         fill="#f1f1f1"
         height="353.0867"
         rx="2.5"
         ry="2.5"
         style="stroke:#181818;stroke-width:0.5"
         width="389.9566"
         x="7"
         y="7"
         id="rect1" />
      <circle
         cx="153.8875"
         cy="23"
         fill="#add1b2"
         style="stroke:#181818;stroke-width:1"
         id="ellipse1"
         r="11" />
      <path
         d="m 156.8562,28.6406 q -0.5781,0.2969 -1.2187,0.4375 -0.6407,0.1563 -1.3438,0.1563 -2.5,0 -3.8281,-1.6406 -1.3125,-1.6563 -1.3125,-4.7813 0,-3.125 1.3125,-4.7812 1.3281,-1.6563 3.8281,-1.6563 0.7031,0 1.3438,0.1563 0.6562,0.1562 1.2187,0.4531 v 2.7187 q -0.625,-0.5781 -1.2187,-0.8437 -0.5938,-0.2813 -1.2188,-0.2813 -1.3437,0 -2.0312,1.0782 -0.6875,1.0625 -0.6875,3.1562 0,2.0938 0.6875,3.1719 0.6875,1.0625 2.0312,1.0625 0.625,0 1.2188,-0.2656 0.5937,-0.2813 1.2187,-0.8594 z"
         fill="#000000"
         id="path1" />
      <text
         fill="#000000"
         font-family="sans-serif"
         font-size="14px"
         lengthAdjust="spacing"
         textLength="87.681702"
         x="174.3875"
         y="28.431999"
         id="text1">OctTreeNode</text>
      <line
         style="stroke:#181818;stroke-width:0.5"
         x1="8"
         x2="395.9566"
         y1="39"
         y2="39"
         id="line1" />
      <g
         data-visibility-modifier="PUBLIC_FIELD"
         id="g2">
        <circle
           cx="18"
           cy="54.034"
           fill="none"
           style="stroke:#038048;stroke-width:1"
           id="ellipse2"
           r="3" />
      </g>
      <text
         fill="#000000"
         font-family="sans-serif"
         font-size="14px"
         lengthAdjust="spacing"
         textLength="156.9534"
         x="27"
         y="57.9659"
         id="text2">«const» theta : float = 1f</text>
      <g
         data-visibility-modifier="PUBLIC_FIELD"
         id="g3">
        <circle
           cx="18"
           cy="73.101898"
           fill="none"
           style="stroke:#038048;stroke-width:1"
           id="ellipse3"
           r="3" />
      </g>
      <text
         fill="#000000"
         font-family="sans-serif"
         font-size="14px"
         lengthAdjust="spacing"
         textLength="136.5135"
         x="27"
         y="77.033897"
         id="text3">BoundsMin : Vector3</text>
      <g
         data-visibility-modifier="PUBLIC_FIELD"
         id="g4">
        <circle
           cx="18"
           cy="92.1698"
           fill="none"
           style="stroke:#038048;stroke-width:1"
           id="ellipse4"
           r="3" />
      </g>
      <text
         fill="#000000"
         font-family="sans-serif"
         font-size="14px"
         lengthAdjust="spacing"
         textLength="139.50951"
         x="27"
         y="96.101799"
         id="text4">BoundsMax : Vector3</text>
      <g
         data-visibility-modifier="PUBLIC_FIELD"
         id="g5">
        <circle
           cx="18"
           cy="111.2377"
           fill="none"
           style="stroke:#038048;stroke-width:1"
           id="ellipse5"
           r="3" />
      </g>
      <text
         fill="#000000"
         font-family="sans-serif"
         font-size="14px"
         lengthAdjust="spacing"
         textLength="169.6653"
         x="27"
         y="115.1697"
         id="text5">Children : OctTreeNode?[]</text>
      <g
         data-visibility-modifier="PUBLIC_FIELD"
         id="g6">
        <circle
           cx="18"
           cy="130.3056"
           fill="none"
           style="stroke:#038048;stroke-width:1"
           id="ellipse6"
           r="3" />
      </g>
      <text
         fill="#000000"
         font-family="sans-serif"
         font-size="14px"
         lengthAdjust="spacing"
         textLength="155.2034"
         x="27"
         y="134.23759"
         id="text6">CenterOfMass : Vector3</text>
      <g
         data-visibility-modifier="PUBLIC_FIELD"
         id="g7">
        <circle
           cx="18"
           cy="149.3735"
           fill="none"
           style="stroke:#038048;stroke-width:1"
           id="ellipse7"
           r="3" />
      </g>
      <text
         fill="#000000"
         font-family="sans-serif"
         font-size="14px"
         lengthAdjust="spacing"
         textLength="68.025703"
         x="27"
         y="153.3055"
         id="text7">Count : int</text>
      <g
         data-visibility-modifier="PUBLIC_FIELD"
         id="g8">
        <circle
           cx="18"
           cy="168.4415"
           fill="none"
           style="stroke:#038048;stroke-width:1"
           id="ellipse8"
           r="3" />
      </g>
      <text
         fill="#000000"
         font-family="sans-serif"
         font-size="14px"
         lengthAdjust="spacing"
         textLength="92.861603"
         x="27"
         y="172.3734"
         id="text8">Body : Vertex?</text>
      <g
         data-visibility-modifier="PUBLIC_FIELD"
         id="g9">
        <circle
           cx="18"
           cy="187.5094"
           fill="none"
           style="stroke:#038048;stroke-width:1"
           id="ellipse9"
           r="3" />
      </g>
      <text
         fill="#000000"
         font-family="sans-serif"
         font-size="14px"
         lengthAdjust="spacing"
         textLength="118.9996"
         x="27"
         y="191.44141"
         id="text9">IsLeaf : bool «get»</text>
      <line
         style="stroke:#181818;stroke-width:0.5"
         x1="8"
         x2="395.9566"
         y1="199.5433"
         y2="199.5433"
         id="line9" />
      <g
         data-visibility-modifier="PRIVATE_METHOD"
         id="g10">
        <rect
           fill="#f24d5c"
           height="6"
           style="stroke:#c82930;stroke-width:1"
           width="6"
           x="15"
           y="211.5773"
           id="rect9" />
      </g>
      <text
         fill="#000000"
         font-family="sans-serif"
         font-size="14px"
         lengthAdjust="spacing"
         textLength="363.9566"
         x="27"
         y="218.50929"
         id="text10">OctTreeNode(boundsMin:Vector3, boundsMax:Vector3)</text>
      <g
         data-visibility-modifier="PUBLIC_METHOD"
         id="g11">
        <circle
           cx="18"
           cy="233.6452"
           fill="#84be84"
           style="stroke:#038048;stroke-width:1"
           id="ellipse10"
           r="3" />
      </g>
      <text
         fill="#000000"
         font-family="sans-serif"
         font-size="14px"
         lengthAdjust="spacing"
         text-decoration="underline"
         textLength="344.32861"
         x="27"
         y="237.57719"
         id="text11"
         style="text-decoration:underline;text-decoration-line:underline">Build(vertices:IEnumerable&lt;Vertex&gt;) : OctTreeNode?</text>
      <g
         data-visibility-modifier="PRIVATE_METHOD"
         id="g12">
        <rect
           fill="#f24d5c"
           height="6"
           style="stroke:#c82930;stroke-width:1"
           width="6"
           x="15"
           y="249.7131"
           id="rect11" />
      </g>
      <text
         fill="#000000"
         font-family="sans-serif"
         font-size="14px"
         lengthAdjust="spacing"
         textLength="173.40331"
         x="27"
         y="256.64511"
         id="text12">Insert(vertex:Vertex) : void</text>
      <g
         data-visibility-modifier="PUBLIC_METHOD"
         id="g13">
        <circle
           cx="18"
           cy="271.78101"
           fill="#84be84"
           style="stroke:#038048;stroke-width:1"
           id="ellipse12"
           r="3" />
      </g>
      <text
         fill="#000000"
         font-family="sans-serif"
         font-size="14px"
         lengthAdjust="spacing"
         textLength="211.4272"
         x="27"
         y="275.71301"
         id="text13">GetOctant(position:Vector3) : int</text>
      <g
         data-visibility-modifier="PUBLIC_METHOD"
         id="g14">
        <circle
           cx="18"
           cy="290.849"
           fill="#84be84"
           style="stroke:#038048;stroke-width:1"
           id="ellipse13"
           r="3" />
      </g>
      <text
         fill="#000000"
         font-family="sans-serif"
         font-size="14px"
         lengthAdjust="spacing"
         textLength="188.9153"
         x="27"
         y="294.78091"
         id="text14">EnsureChild(octant:int) : void</text>
      <g
         data-visibility-modifier="PUBLIC_METHOD"
         id="g15">
        <circle
           cx="18"
           cy="309.9169"
           fill="#84be84"
           style="stroke:#038048;stroke-width:1"
           id="ellipse14"
           r="3" />
      </g>
      <text
         fill="#000000"
         font-family="sans-serif"
         font-size="14px"
         lengthAdjust="spacing"
         textLength="252.951"
         x="27"
         y="313.84891"
         id="text15">ComputeForce(target:Vertex) : Vector3</text>
      <g
         data-visibility-modifier="PRIVATE_METHOD"
         id="g16">
        <rect
           fill="#f24d5c"
           height="6"
           style="stroke:#c82930;stroke-width:1"
           width="6"
           x="15"
           y="325.9848"
           id="rect15" />
      </g>
      <text
         fill="#000000"
         font-family="sans-serif"
         font-size="14px"
         lengthAdjust="spacing"
         textLength="261.79901"
         x="27"
         y="332.91681"
         id="text16">SumChildForces(target:Vertex) : Vector3</text>
      <g
         data-visibility-modifier="PRIVATE_METHOD"
         id="g17">
        <rect
           fill="#f24d5c"
           height="6"
           style="stroke:#c82930;stroke-width:1"
           width="6"
           x="15"
           y="345.0527"
           id="rect16" />
      </g>
      <text
         fill="#000000"
         font-family="sans-serif"
         font-size="14px"
         lengthAdjust="spacing"
         textLength="323.77679"
         x="27"
         y="351.98471"
         id="text17">ComputeDirectForce(targetPos:Vector3) : Vector3</text>
    </g>
<?plantuml-src XL1FIyCm5B_xAN9iqHt4MwaTR4ufE2SeNiH3chwwG9itajSn6VlkliPqPDl1N0Blz_SzrKhdn4hHkmLumHh4_ahmknPvhj0uAWf1Qo0fCj6qA4dSYzicK6ROczejjM7m0nIXlJj5vEu2cQzrMriO957gzFDhnC4Gs5Mp77fTYDcMUAeD7OFg7q-p1Bjf69Rk6MJ3umgnvKM-WTVms2GEJQgnVnPYRaGr5Xz7QV3SEvAarK7CUbuWsNAWLk2oSc7w3goiMiZ_MXJfsMuXkJIESQ-4mNxu1keMTHr2de1OA0qb6tIQD1wRfITRBuphBVXJ9kW56ODdPdFiDZt18re52KdBLuXIuyDEn5lVUJTFTl-nW_E3jZoE_L_HnOL7rU4N?>  </g>
</svg>

<?plantuml 1.2026.1?><svg xmlns="http://www.w3.org/2000/svg" xmlns:xlink="http://www.w3.org/1999/xlink" contentStyleType="text/css" data-diagram-type="CLASS" height="374px" preserveAspectRatio="none" style="width:410px;height:374px;background:#FFFFFF;" version="1.1" viewBox="0 0 410 374" width="410px" zoomAndPan="magnify"><defs/><g><!--class OctTreeNode--><g class="entity" data-qualified-name="OctTreeNode" data-source-line="1" id="ent0002"><rect fill="#F1F1F1" height="353.0867" rx="2.5" ry="2.5" style="stroke:#181818;stroke-width:0.5;" width="389.9566" x="7" y="7"/><ellipse cx="153.8875" cy="23" fill="#ADD1B2" rx="11" ry="11" style="stroke:#181818;stroke-width:1;"/><path d="M156.8562,28.6406 Q156.2781,28.9375 155.6375,29.0781 Q154.9968,29.2344 154.2937,29.2344 Q151.7937,29.2344 150.4656,27.5938 Q149.1531,25.9375 149.1531,22.8125 Q149.1531,19.6875 150.4656,18.0313 Q151.7937,16.375 154.2937,16.375 Q154.9968,16.375 155.6375,16.5313 Q156.2937,16.6875 156.8562,16.9844 L156.8562,19.7031 Q156.2312,19.125 155.6375,18.8594 Q155.0437,18.5781 154.4187,18.5781 Q153.075,18.5781 152.3875,19.6563 Q151.7,20.7188 151.7,22.8125 Q151.7,24.9063 152.3875,25.9844 Q153.075,27.0469 154.4187,27.0469 Q155.0437,27.0469 155.6375,26.7813 Q156.2312,26.5 156.8562,25.9219 L156.8562,28.6406 Z " fill="#000000"/><text fill="#000000" font-family="sans-serif" font-size="14" lengthAdjust="spacing" textLength="87.6817" x="174.3875" y="28.432">OctTreeNode</text><line style="stroke:#181818;stroke-width:0.5;" x1="8" x2="395.9566" y1="39" y2="39"/><g data-visibility-modifier="PUBLIC_FIELD"><ellipse cx="18" cy="54.034" fill="none" rx="3" ry="3" style="stroke:#038048;stroke-width:1;"/></g><text fill="#000000" font-family="sans-serif" font-size="14" lengthAdjust="spacing" textLength="156.9534" x="27" y="57.9659">&#171;const&#187; theta : float = 1f</text><g data-visibility-modifier="PUBLIC_FIELD"><ellipse cx="18" cy="73.1019" fill="none" rx="3" ry="3" style="stroke:#038048;stroke-width:1;"/></g><text fill="#000000" font-family="sans-serif" font-size="14" lengthAdjust="spacing" textLength="136.5135" x="27" y="77.0339">BoundsMin : Vector3</text><g data-visibility-modifier="PUBLIC_FIELD"><ellipse cx="18" cy="92.1698" fill="none" rx="3" ry="3" style="stroke:#038048;stroke-width:1;"/></g><text fill="#000000" font-family="sans-serif" font-size="14" lengthAdjust="spacing" textLength="139.5095" x="27" y="96.1018">BoundsMax : Vector3</text><g data-visibility-modifier="PUBLIC_FIELD"><ellipse cx="18" cy="111.2377" fill="none" rx="3" ry="3" style="stroke:#038048;stroke-width:1;"/></g><text fill="#000000" font-family="sans-serif" font-size="14" lengthAdjust="spacing" textLength="169.6653" x="27" y="115.1697">Children : OctTreeNode?[]</text><g data-visibility-modifier="PUBLIC_FIELD"><ellipse cx="18" cy="130.3056" fill="none" rx="3" ry="3" style="stroke:#038048;stroke-width:1;"/></g><text fill="#000000" font-family="sans-serif" font-size="14" lengthAdjust="spacing" textLength="155.2034" x="27" y="134.2376">CenterOfMass : Vector3</text><g data-visibility-modifier="PUBLIC_FIELD"><ellipse cx="18" cy="149.3735" fill="none" rx="3" ry="3" style="stroke:#038048;stroke-width:1;"/></g><text fill="#000000" font-family="sans-serif" font-size="14" lengthAdjust="spacing" textLength="68.0257" x="27" y="153.3055">Count : int</text><g data-visibility-modifier="PUBLIC_FIELD"><ellipse cx="18" cy="168.4415" fill="none" rx="3" ry="3" style="stroke:#038048;stroke-width:1;"/></g><text fill="#000000" font-family="sans-serif" font-size="14" lengthAdjust="spacing" textLength="92.8616" x="27" y="172.3734">Body : Vertex?</text><g data-visibility-modifier="PUBLIC_FIELD"><ellipse cx="18" cy="187.5094" fill="none" rx="3" ry="3" style="stroke:#038048;stroke-width:1;"/></g><text fill="#000000" font-family="sans-serif" font-size="14" lengthAdjust="spacing" textLength="118.9996" x="27" y="191.4414">IsLeaf : bool &#171;get&#187;</text><line style="stroke:#181818;stroke-width:0.5;" x1="8" x2="395.9566" y1="199.5433" y2="199.5433"/><g data-visibility-modifier="PRIVATE_METHOD"><rect fill="#F24D5C" height="6" style="stroke:#C82930;stroke-width:1;" width="6" x="15" y="211.5773"/></g><text fill="#000000" font-family="sans-serif" font-size="14" lengthAdjust="spacing" textLength="363.9566" x="27" y="218.5093">OctTreeNode(boundsMin:Vector3, boundsMax:Vector3)</text><g data-visibility-modifier="PUBLIC_METHOD"><ellipse cx="18" cy="233.6452" fill="#84BE84" rx="3" ry="3" style="stroke:#038048;stroke-width:1;"/></g><text fill="#000000" font-family="sans-serif" font-size="14" lengthAdjust="spacing" text-decoration="underline" textLength="344.3286" x="27" y="237.5772">Build(vertices:IEnumerable&lt;Vertex&gt;) : OctTreeNode?</text><g data-visibility-modifier="PRIVATE_METHOD"><rect fill="#F24D5C" height="6" style="stroke:#C82930;stroke-width:1;" width="6" x="15" y="249.7131"/></g><text fill="#000000" font-family="sans-serif" font-size="14" lengthAdjust="spacing" textLength="173.4033" x="27" y="256.6451">Insert(vertex:Vertex) : void</text><g data-visibility-modifier="PUBLIC_METHOD"><ellipse cx="18" cy="271.781" fill="#84BE84" rx="3" ry="3" style="stroke:#038048;stroke-width:1;"/></g><text fill="#000000" font-family="sans-serif" font-size="14" lengthAdjust="spacing" textLength="211.4272" x="27" y="275.713">GetOctant(position:Vector3) : int</text><g data-visibility-modifier="PUBLIC_METHOD"><ellipse cx="18" cy="290.849" fill="#84BE84" rx="3" ry="3" style="stroke:#038048;stroke-width:1;"/></g><text fill="#000000" font-family="sans-serif" font-size="14" lengthAdjust="spacing" textLength="188.9153" x="27" y="294.7809">EnsureChild(octant:int) : void</text><g data-visibility-modifier="PUBLIC_METHOD"><ellipse cx="18" cy="309.9169" fill="#84BE84" rx="3" ry="3" style="stroke:#038048;stroke-width:1;"/></g><text fill="#000000" font-family="sans-serif" font-size="14" lengthAdjust="spacing" textLength="252.951" x="27" y="313.8489">ComputeForce(target:Vertex) : Vector3</text><g data-visibility-modifier="PRIVATE_METHOD"><rect fill="#F24D5C" height="6" style="stroke:#C82930;stroke-width:1;" width="6" x="15" y="325.9848"/></g><text fill="#000000" font-family="sans-serif" font-size="14" lengthAdjust="spacing" textLength="261.799" x="27" y="332.9168">SumChildForces(target:Vertex) : Vector3</text><g data-visibility-modifier="PRIVATE_METHOD"><rect fill="#F24D5C" height="6" style="stroke:#C82930;stroke-width:1;" width="6" x="15" y="345.0527"/></g><text fill="#000000" font-family="sans-serif" font-size="14" lengthAdjust="spacing" textLength="323.7768" x="27" y="351.9847">ComputeDirectForce(targetPos:Vector3) : Vector3</text></g><?plantuml-src XL1FIyCm5B_xAN9iqHt4MwaTR4ufE2SeNiH3chwwG9itajSn6VlkliPqPDl1N0Blz_SzrKhdn4hHkmLumHh4_ahmknPvhj0uAWf1Qo0fCj6qA4dSYzicK6ROczejjM7m0nIXlJj5vEu2cQzrMriO957gzFDhnC4Gs5Mp77fTYDcMUAeD7OFg7q-p1Bjf69Rk6MJ3umgnvKM-WTVms2GEJQgnVnPYRaGr5Xz7QV3SEvAarK7CUbuWsNAWLk2oSc7w3goiMiZ_MXJfsMuXkJIESQ-4mNxu1keMTHr2de1OA0qb6tIQD1wRfITRBuphBVXJ9kW56ODdPdFiDZt18re52KdBLuXIuyDEn5lVUJTFTl-nW_E3jZoE_L_HnOL7rU4N?></g></svg>
